X:1
T:King of Kings
T:John Bunyan Herbert, circa 1915
T:King of Kings
T:Public Domain
T:Public Domain
C:John Bunyan Herbert, circa 1915
Z:Public Domain
%%score ( 1 2 ) ( 3 4 )
L:1/8
M:4/4
K:C
V:1 treble 
V:2 treble 
V:3 bass 
V:4 bass 
V:1
 [EG]2 | [Ec]2 (BA) [EG]2 [CE]2 | [CA]2 (GF) [CE]2 [CE]2 | [CG]2 ([B,F][CE]) [A,D]2 ([^CG][DF]) | %4
w: 1.~O|thank the * Lord, the|of love; * O thank|God all * gods a- *|
w: 2.~Give|thanks to * God, for|is He, * Thanks to|God of * gods give *|
w: 3.~Who|thought on * us a-|our woes, * And res-|us from * all our *|
w: 4.~O|praise the * Lord, for|is kind, * Give thanks|Him with * heart and *|
 [CE]2 [B,D]2 [CE]2 [EG]2 | [Ec]2 (BA) [EG]2 [CE]2 | [CA]2 (GF) [CE]2 [CE]2 | %7
w: bove; O thank the|might- y * King of|Whose arm * hath done|
w: ye; Thanks give the|Lord of * Lords un-|Who on- * ly won-|
w: foes; Who dai- ly|feeds each * liv- ing|O thank * the heav’n’s|
w: mind; His mer- cy|flows an * end- less|To all * e- ter-|
 [CG]2 ([B,F][CE]) [A,D]2 ([^CE][DF]) | [CE]2 [B,D]2 C4 ||"^Refrain" c2 c2 c3 [EG] | %10
w: wond- rous * things * *|||
w: great can * do. King *|of kings for-|er and ev- er;|
w: might- y * King. * *|||
w: ty the * same. * *|||
 [FA][EG][EG][FA] [EG]2 x | d2 d2 d3 [^FA] | [GB][^FA][FA][GB] [FA]2 x | e2 e2 e3 [^GB] | %14
w: ||||
w: Lord of lords, for- ev-|er and ev- er,|King of kings for- ev-|er and ev- er;|
w: ||||
w: ||||
 [Ac][^GB][GB][Ac] [GB]2 x | [Af]2 [Ae]2 [Ad]2 [Ac]2 | c4 (z2 F2) x2 | [Ec]6 |] %18
w: ||||
w: King of kings and Lord|of lords! * *|||
w: ||||
w: ||||
V:2
 x2 | x2 F2 x4 | x2 C2 x4 | x8 | x8 | x2 E2 x4 | x2 C2 x4 | x8 | x4 C4 || x8 | x7 | x8 | x7 | x8 | %14
w: |Lord|the|||kings,|such||||||||
w: |good|the|||to,|ders||ev-||||||
w: |midst|cued|||thing;|Al-||||||||
w: |He|to|||stream,|ni-||||||||
 x7 | x8 | G6 B4 | x6 |] %18
w: ||||
w: ||||
w: ||||
w: ||||
V:3
 [C,C]2 | [C,G,]2 (A,B,) [C,C]2 [C,G,]2 | [C,C]2 (B,A,) [C,G,]2 [C,G,]2 | %3
 [E,G,]2 (D,C,) F,2 (E,D,) | G,2 [G,,G,]2 [C,G,]2 [C,C]2 | [C,G,]2 (A,B,) [C,C]2 [C,G,]2 | %6
 [C,C]2 (B,A,) [C,G,]2 [C,G,]2 | [E,G,]2 (D,C,) F,2 ([E,G,][D,A,]) | G,2 [G,,F,]2 [C,E,]4 || %9
 C2 C2 z3 C, | F,C,C,F, C,2 x | D2 D2 z3 D, | G,D,D,G, D,2 x | E2 E2 z3 E, | A,E,E,A, E,2 x | %15
 [D,D]2 [E,^C]2 [F,D]2 [^F,^D]2 | [G,E]4 [G,,D]4 x2 | [C,C]6 |] %18
V:4
 x2 | x2 C,2 x4 | x2 C,2 x4 | x2 G,2 F,2 A,2 | G,2 x6 | x2 C,2 x4 | x2 C,2 x4 | x2 G,2 F,2 x2 | %8
 G,2 x6 || x4 C4- | C4- C3 | x4 D4- | D4- D3 | x4 E4- | E4- E3 | x8 | x10 | x6 |] %18

